X:1
T:RVW2/1/107 Come All You Valiant Shepherds
T:RVW2/1/107 Come All You Valiant Shepherds
T:Transcribed by Simon Furey and Lewis Jones Sung by Burrage, 'Rushills', Capel, Surrey, April/August 1908 [4 of 5]
C:Transcribed by Simon Furey and Lewis Jones
C:Sung by Burrage, 'Rushills', Capel, Surrey, April/August 1908 [4 of 5]
L:1/8
Q:1/4=110
M:4/4
K:D
V:1 treble 
V:1
"^Editorialsuggestion" A2 | F2 G2 A2 Bc |"^(a)" d3 c B2 cd | e2 d2 c2 B2 | A6 :| B>A | %6
 F2 D2 F2 A2 | d2 f2 d2 A>G | F2 dc BAGF | F2{GF} E4 A>F | DEFG A2 Bc | d4 F2 E2 | %12
"^(b)" B3 A AG E2 | D6 |: A2 | F2 G2 A2 Bc |"^(a) var." d3 c Bcdf | e2 d2 c2 B2 | A6 :| B>A | %20
 F2 D2 F2 A2 | d2 f2 d2 A>G | F2 dc BAGF | F2{GF} E4 A>F | DEFG A2 Bc | d4 F2 E2 | %26
[M:5/4]"^(b) var." B3 A A2 G2 E2 |[M:4/4] D6 |] %28

